app/images/icons/joined-icon.svg

<svg fill="none" height="40" viewBox="0 0 40 40" width="40" xmlns="http://www.w3.org/2000/svg"><path d="m20 40c11.0457 0 20-8.9543 20-20s-8.9543-20-20-20-20 8.9543-20 20 8.9543 20 20 20z" fill="#e1f3f8"/><path clip-rule="evenodd" d="m21.4784 27.5247c.3488 0 .6316.2827.6316.6315 0 .3489-.2828.6316-.6316.6316h-10.6364c-.3488 0-.6316-.2827-.6316-.6316 0-4.3575 3.2184-8.4877 7.7082-8.4877.3488 0 .6316.2828.6316.6316s-.2828.6316-.6316.6316c-3.5024 0-6.1313 3.1181-6.4188 6.593zm-1.2703-9.0752c-2.3021 0-4.1699-1.8556-4.1699-4.1466 0-2.2911 1.8678-4.1467 4.1699-4.1467 2.302 0 4.1698 1.8556 4.1698 4.1467 0 2.291-1.8678 4.1466-4.1698 4.1466zm0-1.2632c1.6062 0 2.9067-1.2919 2.9067-2.8834 0-1.5916-1.3005-2.8835-2.9067-2.8835-1.6063 0-2.9067 1.2919-2.9067 2.8835 0 1.5915 1.3004 2.8834 2.9067 2.8834zm6.1278 2.4997c.9267-.1 1.8514.2092 2.5247.8454l.0054.0052c.5903.5712.9234 1.3524.9234 2.1684s-.3331 1.5972-.9226 2.1676l-3.8476 3.7367c-.2451.238-.6349.238-.88.0001l-3.8467-3.7347c-.5908-.5713-.9242-1.3528-.9242-2.1691 0-.8164.3334-1.5979.9294-2.1742.6733-.6362 1.598-.9454 2.5247-.8454.6591.0712 1.2718.3443 1.7568.7714.4849-.4271 1.0976-.7002 1.7567-.7714zm.1356 1.2559c-.559.0603-1.0605.3605-1.3688.8173-.2504.371-.7967.371-1.0471 0-.3083-.4568-.8097-.757-1.3688-.8173-.5599-.0605-1.1177.1261-1.5162.5026-.3454.334-.5391.788-.5391 1.2611 0 .473.1937.9271.54 1.2619l3.4076 3.3084 3.4085-3.3103c.3451-.3339.5386-.7878.5386-1.2606 0-.4716-.1925-.9244-.5359-1.2581-.4036-.3798-.9601-.5653-1.5188-.505z" fill="#117cb6" fill-rule="evenodd"/></svg>

<svg width="40" height="40" viewBox="0 0 40 40" fill="none" xmlns="http://www.w3.org/2000/svg">
<path d="M20 40C31.0457 40 40 31.0457 40 20C40 8.9543 31.0457 0 20 0C8.9543 0 0 8.9543 0 20C0 31.0457 8.9543 40 20 40Z" fill="#E1F3F8"/>
<path fill-rule="evenodd" clip-rule="evenodd" d="M21.4784 27.5247C21.8272 27.5247 22.11 27.8074 22.11 28.1562C22.11 28.5051 21.8272 28.7878 21.4784 28.7878H10.842C10.4932 28.7878 10.2104 28.5051 10.2104 28.1562C10.2104 23.7987 13.4288 19.6685 17.9186 19.6685C18.2674 19.6685 18.5502 19.9513 18.5502 20.3001C18.5502 20.6489 18.2674 20.9317 17.9186 20.9317C14.4162 20.9317 11.7873 24.0498 11.4998 27.5247L21.4784 27.5247ZM20.2081 18.4495C17.906 18.4495 16.0382 16.5939 16.0382 14.3029C16.0382 12.0118 17.906 10.1562 20.2081 10.1562C22.5101 10.1562 24.3779 12.0118 24.3779 14.3029C24.3779 16.5939 22.5101 18.4495 20.2081 18.4495ZM20.2081 17.1863C21.8143 17.1863 23.1148 15.8944 23.1148 14.3029C23.1148 12.7113 21.8143 11.4194 20.2081 11.4194C18.6018 11.4194 17.3014 12.7113 17.3014 14.3029C17.3014 15.8944 18.6018 17.1863 20.2081 17.1863ZM26.3359 19.686C27.2626 19.586 28.1873 19.8952 28.8606 20.5314L28.866 20.5366C29.4563 21.1078 29.7894 21.889 29.7894 22.705C29.7894 23.521 29.4563 24.3022 28.8668 24.8726L25.0192 28.6093C24.7741 28.8473 24.3843 28.8473 24.1392 28.6094L20.2925 24.8747C19.7017 24.3034 19.3683 23.5219 19.3683 22.7056C19.3683 21.8892 19.7017 21.1077 20.2977 20.5314C20.971 19.8952 21.8957 19.586 22.8224 19.686C23.4815 19.7572 24.0942 20.0303 24.5792 20.4574C25.0641 20.0303 25.6768 19.7572 26.3359 19.686ZM26.4715 20.9419C25.9125 21.0022 25.411 21.3024 25.1027 21.7592C24.8523 22.1302 24.306 22.1302 24.0556 21.7592C23.7473 21.3024 23.2459 21.0022 22.6868 20.9419C22.1269 20.8814 21.5691 21.068 21.1706 21.4445C20.8252 21.7785 20.6315 22.2325 20.6315 22.7056C20.6315 23.1786 20.8252 23.6327 21.1715 23.9675L24.5791 27.2759L27.9876 23.9656C28.3327 23.6317 28.5262 23.1778 28.5262 22.705C28.5262 22.2334 28.3337 21.7806 27.9903 21.4469C27.5867 21.0671 27.0302 20.8816 26.4715 20.9419Z" fill="#117CB6"/>
</svg>
